static/img/kroki/0bd16e22d29b72f37591d4d9637b7149.svg

<?xml version="1.0" encoding="us-ascii" standalone="no"?><svg xmlns="http://www.w3.org/2000/svg" xmlns:xlink="http://www.w3.org/1999/xlink" contentStyleType="text/css" height="451px" preserveAspectRatio="none" style="width:456px;height:451px;" version="1.1" viewBox="0 0 456 451" width="456px" zoomAndPan="magnify"><defs/><g><!--class digitalocean_droplet--><g id="elem_digitalocean_droplet"><rect codeLine="22" fill="#3D176E" height="39.7891" id="digitalocean_droplet" rx="2.5" ry="2.5" style="stroke:#000D19;stroke-width:0.5;" width="211" x="7" y="206.58"/><ellipse cx="22" cy="226.4745" fill="#ADD1B2" rx="11" ry="11" style="stroke:#181818;stroke-width:1.0;"/><path d="M24.9688,232.1152 Q24.3906,232.412 23.75,232.5527 Q23.1094,232.7089 22.4063,232.7089 Q19.9063,232.7089 18.5781,231.0683 Q17.2656,229.412 17.2656,226.287 Q17.2656,223.162 18.5781,221.5058 Q19.9063,219.8495 22.4063,219.8495 Q23.1094,219.8495 23.75,220.0058 Q24.4063,220.162 24.9688,220.4589 L24.9688,223.1777 Q24.3438,222.5995 23.75,222.3339 Q23.1563,222.0527 22.5313,222.0527 Q21.1875,222.0527 20.5,223.1308 Q19.8125,224.1933 19.8125,226.287 Q19.8125,228.3808 20.5,229.4589 Q21.1875,230.5214 22.5313,230.5214 Q23.1563,230.5214 23.75,230.2558 Q24.3438,229.9745 24.9688,229.3964 L24.9688,232.1152 Z " fill="#000000"/><text fill="#D9B8FF" font-family="Helvetica" font-size="17" lengthAdjust="spacing" textLength="169" x="41" y="232.3598">digitalocean_droplet</text></g><!--class digitalocean_project--><g id="elem_digitalocean_project"><rect codeLine="24" fill="#3D176E" height="39.7891" id="digitalocean_project" rx="2.5" ry="2.5" style="stroke:#000D19;stroke-width:0.5;" width="209" x="99" y="106.79"/><ellipse cx="114" cy="126.6845" fill="#ADD1B2" rx="11" ry="11" style="stroke:#181818;stroke-width:1.0;"/><path d="M116.9688,132.3252 Q116.3906,132.622 115.75,132.7627 Q115.1094,132.9189 114.4063,132.9189 Q111.9063,132.9189 110.5781,131.2783 Q109.2656,129.622 109.2656,126.497 Q109.2656,123.372 110.5781,121.7158 Q111.9063,120.0595 114.4063,120.0595 Q115.1094,120.0595 115.75,120.2158 Q116.4063,120.372 116.9688,120.6689 L116.9688,123.3877 Q116.3438,122.8095 115.75,122.5439 Q115.1563,122.2627 114.5313,122.2627 Q113.1875,122.2627 112.5,123.3408 Q111.8125,124.4033 111.8125,126.497 Q111.8125,128.5908 112.5,129.6689 Q113.1875,130.7314 114.5313,130.7314 Q115.1563,130.7314 115.75,130.4658 Q116.3438,130.1845 116.9688,129.6064 L116.9688,132.3252 Z " fill="#000000"/><text fill="#D9B8FF" font-family="Helvetica" font-size="17" lengthAdjust="spacing" textLength="167" x="133" y="132.5698">digitalocean_project</text></g><!--class digitalocean_snapshot--><g id="elem_digitalocean_snapshot"><rect codeLine="26" fill="#3D176E" height="39.7891" id="digitalocean_snapshot" rx="2.5" ry="2.5" style="stroke:#000D19;stroke-width:0.5;" width="227" x="159" y="406.16"/><ellipse cx="174" cy="426.0545" fill="#ADD1B2" rx="11" ry="11" style="stroke:#181818;stroke-width:1.0;"/><path d="M176.9688,431.6952 Q176.3906,431.992 175.75,432.1327 Q175.1094,432.2889 174.4063,432.2889 Q171.9063,432.2889 170.5781,430.6483 Q169.2656,428.992 169.2656,425.867 Q169.2656,422.742 170.5781,421.0858 Q171.9063,419.4295 174.4063,419.4295 Q175.1094,419.4295 175.75,419.5858 Q176.4063,419.742 176.9688,420.0389 L176.9688,422.7577 Q176.3438,422.1795 175.75,421.9139 Q175.1563,421.6327 174.5313,421.6327 Q173.1875,421.6327 172.5,422.7108 Q171.8125,423.7733 171.8125,425.867 Q171.8125,427.9608 172.5,429.0389 Q173.1875,430.1014 174.5313,430.1014 Q175.1563,430.1014 175.75,429.8358 Q176.3438,429.5545 176.9688,428.9764 L176.9688,431.6952 Z " fill="#000000"/><text fill="#D9B8FF" font-family="Helvetica" font-size="17" lengthAdjust="spacing" textLength="185" x="193" y="431.9398">digitalocean_snapshot</text></g><!--class digitalocean_team--><g id="elem_digitalocean_team"><rect codeLine="28" fill="#3D176E" height="39.7891" id="digitalocean_team" rx="2.5" ry="2.5" style="stroke:#000D19;stroke-width:0.5;" width="196" x="184.5" y="7"/><ellipse cx="199.5" cy="26.8945" fill="#ADD1B2" rx="11" ry="11" style="stroke:#181818;stroke-width:1.0;"/><path d="M202.4688,32.5352 Q201.8906,32.832 201.25,32.9727 Q200.6094,33.1289 199.9063,33.1289 Q197.4063,33.1289 196.0781,31.4883 Q194.7656,29.832 194.7656,26.707 Q194.7656,23.582 196.0781,21.9258 Q197.4063,20.2695 199.9063,20.2695 Q200.6094,20.2695 201.25,20.4258 Q201.9063,20.582 202.4688,20.8789 L202.4688,23.5977 Q201.8438,23.0195 201.25,22.7539 Q200.6563,22.4727 200.0313,22.4727 Q198.6875,22.4727 198,23.5508 Q197.3125,24.6133 197.3125,26.707 Q197.3125,28.8008 198,29.8789 Q198.6875,30.9414 200.0313,30.9414 Q200.6563,30.9414 201.25,30.6758 Q201.8438,30.3945 202.4688,29.8164 L202.4688,32.5352 Z " fill="#000000"/><text fill="#D9B8FF" font-family="Helvetica" font-size="17" lengthAdjust="spacing" textLength="154" x="218.5" y="32.7798">digitalocean_team</text></g><!--class digitalocean_volume--><g id="elem_digitalocean_volume"><rect codeLine="30" fill="#3D176E" height="39.7891" id="digitalocean_volume" rx="2.5" ry="2.5" style="stroke:#000D19;stroke-width:0.5;" width="215" x="165" y="306.37"/><ellipse cx="180" cy="326.2645" fill="#ADD1B2" rx="11" ry="11" style="stroke:#181818;stroke-width:1.0;"/><path d="M182.9688,331.9052 Q182.3906,332.202 181.75,332.3427 Q181.1094,332.4989 180.4063,332.4989 Q177.9063,332.4989 176.5781,330.8583 Q175.2656,329.202 175.2656,326.077 Q175.2656,322.952 176.5781,321.2958 Q177.9063,319.6395 180.4063,319.6395 Q181.1094,319.6395 181.75,319.7958 Q182.4063,319.952 182.9688,320.2489 L182.9688,322.9677 Q182.3438,322.3895 181.75,322.1239 Q181.1563,321.8427 180.5313,321.8427 Q179.1875,321.8427 178.5,322.9208 Q177.8125,323.9833 177.8125,326.077 Q177.8125,328.1708 178.5,329.2489 Q179.1875,330.3114 180.5313,330.3114 Q181.1563,330.3114 181.75,330.0458 Q182.3438,329.7645 182.9688,329.1864 L182.9688,331.9052 Z " fill="#000000"/><text fill="#D9B8FF" font-family="Helvetica" font-size="17" lengthAdjust="spacing" textLength="173" x="199" y="332.1498">digitalocean_volume</text></g><!--link digitalocean_droplet to digitalocean_snapshot--><g id="link_digitalocean_droplet_digitalocean_snapshot"><path codeLine="32" d="M113.99,246.6 C116.8,271.72 124.83,316.17 147.5,346.16 C167.54,372.67 193.9174,389.8789 220.4074,403.0489 " fill="none" id="digitalocean_droplet-to-digitalocean_snapshot" style="stroke:#1A83AF;stroke-width:2.0;"/><polygon fill="#1A83AF" points="225.78,405.72,219.5018,398.1316,221.3028,403.4941,215.9403,405.2951,225.78,405.72" style="stroke:#1A83AF;stroke-width:2.0;"/></g><!--link digitalocean_droplet to digitalocean_volume--><g id="link_digitalocean_droplet_digitalocean_volume"><path codeLine="33" d="M144.11,246.8 C172.16,263.94 207.8012,285.7199 235.8312,302.8599 " fill="none" id="digitalocean_droplet-to-digitalocean_volume" style="stroke:#1A83AF;stroke-width:2.0;"/><polygon fill="#1A83AF" points="240.95,305.99,235.3585,297.8823,236.6843,303.3816,231.185,304.7074,240.95,305.99" style="stroke:#1A83AF;stroke-width:2.0;"/></g><!--link digitalocean_project to digitalocean_droplet--><g id="link_digitalocean_project_digitalocean_droplet"><path codeLine="34" d="M185.52,147.01 C169.57,164.15 150.4673,184.6775 134.5273,201.8075 " fill="none" id="digitalocean_project-to-digitalocean_droplet" style="stroke:#1A83AF;stroke-width:2.0;"/><polygon fill="#1A83AF" points="130.44,206.2,139.4993,202.3362,133.8461,202.5396,133.6427,196.8864,130.44,206.2" style="stroke:#1A83AF;stroke-width:2.0;"/></g><!--link digitalocean_project to digitalocean_volume--><g id="link_digitalocean_project_digitalocean_volume"><path codeLine="35" d="M211.84,146.97 C218.58,162.84 228.13,185.99 235.5,206.58 C247.94,241.33 258.603,276.8462 265.423,300.4262 " fill="none" id="digitalocean_project-to-digitalocean_volume" style="stroke:#1A83AF;stroke-width:2.0;"/><polygon fill="#1A83AF" points="267.09,306.19,268.4319,296.433,265.7008,301.3869,260.7469,298.6557,267.09,306.19" style="stroke:#1A83AF;stroke-width:2.0;"/></g><!--link digitalocean_team to digitalocean_droplet--><g id="link_digitalocean_team_digitalocean_droplet"><path codeLine="36" d="M184.13,42.22 C145.47,53.19 104.83,72.57 81.5,106.79 C60.63,137.41 79.1921,176.2015 95.3121,201.1315 " fill="none" id="digitalocean_team-to-digitalocean_droplet" style="stroke:#1A83AF;stroke-width:2.0;"/><polygon fill="#1A83AF" points="98.57,206.17,97.0421,196.4404,95.8551,201.9713,90.3242,200.7843,98.57,206.17" style="stroke:#1A83AF;stroke-width:2.0;"/></g><!--link digitalocean_team to digitalocean_project--><g id="link_digitalocean_team_digitalocean_project"><path codeLine="37" d="M266.89,47.22 C253.04,64.36 236.6907,84.6129 222.8507,101.7429 " fill="none" id="digitalocean_team-to-digitalocean_project" style="stroke:#1A83AF;stroke-width:2.0;"/><polygon fill="#1A83AF" points="219.08,106.41,227.8475,101.9232,222.2223,102.5208,221.6247,96.8956,219.08,106.41" style="stroke:#1A83AF;stroke-width:2.0;"/></g><!--link digitalocean_team to digitalocean_snapshot--><g id="link_digitalocean_team_digitalocean_snapshot"><path codeLine="38" d="M305.08,47.06 C321,61.79 341.54,83.52 353.5,106.79 C402.96,202.99 449.73,251.44 397.5,346.16 C382.26,373.8 358.2299,390.5261 331.7399,403.1061 " fill="none" id="digitalocean_team-to-digitalocean_snapshot" style="stroke:#1A83AF;stroke-width:2.0;"/><polygon fill="#1A83AF" points="326.32,405.68,336.1657,405.4324,330.8366,403.5351,332.7339,398.2059,326.32,405.68" style="stroke:#1A83AF;stroke-width:2.0;"/></g><!--link digitalocean_team to digitalocean_volume--><g id="link_digitalocean_team_digitalocean_volume"><path codeLine="39" d="M296.59,47.17 C306.86,62.48 319.91,84.88 325.5,106.79 C344.2,180.17 306.9617,262.5156 286.4517,300.6556 " fill="none" id="digitalocean_team-to-digitalocean_volume" style="stroke:#1A83AF;stroke-width:2.0;"/><polygon fill="#1A83AF" points="283.61,305.94,291.3955,299.9079,285.9781,301.5363,284.3496,296.119,283.61,305.94" style="stroke:#1A83AF;stroke-width:2.0;"/></g><!--link digitalocean_volume to digitalocean_snapshot--><g id="link_digitalocean_volume_digitalocean_snapshot"><path codeLine="40" d="M272.5,346.59 C272.5,363.73 272.5,382.64 272.5,399.78 " fill="none" id="digitalocean_volume-to-digitalocean_snapshot" style="stroke:#1A83AF;stroke-width:2.0;"/><polygon fill="#1A83AF" points="272.5,405.78,276.5,396.78,272.5,400.78,268.5,396.78,272.5,405.78" style="stroke:#1A83AF;stroke-width:2.0;"/></g><!--SRC=[bP5HJy8m58NV-HLDU2PX4WLUJ2O9qHTYn3TZJ5blMQLhbziB18t_NGRJbArZsMlFT-uvzpPL0XXaEHrO1jaAqFNSHfcS8yzOZ6ZtCwijihwKN8x6LN5k3RK22vu1UmIz0r89hnAlgKes1fnZDvxqm9FD6ktMYFDuGcxSKG937ZNJtBcO2DLgI-2L4TFLHCegMHtQ7ubeV0SrpA80B97XS2YYQHLfZRgwzp-nL5_08lze2qjGgrcBE55NMnQ4LxAsw9_UsF6P2w7CcjrwRo_dJcW0BzwNAHTsNz2IQ-V7E084IuSSPhMjO3eHSXo4dvhWfBWS4sgjY6kR03SV0cskWTXtxoSavsW_8McKdU6vIssZJd0irg3jhDuUhrUemKQ3jtuKJqRn_7rm7qxjwZidze8BDhlAkLrjeR3JEJecjNZA8fqyuVkrc4Bxb5_OdlGB]--></g></svg>

<svg xmlns="http://www.w3.org/2000/svg" width="456" height="451" viewBox="0 0 456 451"><rect width="211" height="39.789" x="7" y="206.58" fill="#3D176E" rx="2.5" ry="2.5" style="stroke:#000d19;stroke-width:.5"/><circle cx="22" cy="226.475" r="11" fill="#ADD1B2" style="stroke:#181818;stroke-width:1"/><path d="M24.969 232.115q-.578.297-1.219.438-.64.156-1.344.156-2.5 0-3.828-1.64-1.312-1.657-1.312-4.782t1.312-4.781q1.328-1.656 3.828-1.656.703 0 1.344.156.656.156 1.219.453v2.719q-.625-.578-1.219-.844-.594-.281-1.219-.281-1.343 0-2.031 1.078-.687 1.062-.687 3.156t.687 3.172q.688 1.062 2.031 1.062.625 0 1.219-.265.594-.281 1.219-.86z"/><text x="41" y="232.36" fill="#D9B8FF" font-family="Helvetica" font-size="17" textLength="169">digitalocean_droplet</text><rect width="209" height="39.789" x="99" y="106.79" fill="#3D176E" rx="2.5" ry="2.5" style="stroke:#000d19;stroke-width:.5"/><circle cx="114" cy="126.684" r="11" fill="#ADD1B2" style="stroke:#181818;stroke-width:1"/><path d="M116.969 132.325q-.578.297-1.219.438-.64.156-1.344.156-2.5 0-3.828-1.64-1.312-1.657-1.312-4.782t1.312-4.781q1.328-1.656 3.828-1.656.703 0 1.344.156.656.156 1.219.453v2.719q-.625-.579-1.219-.844-.594-.281-1.219-.281-1.344 0-2.031 1.078-.687 1.062-.687 3.156t.687 3.172q.688 1.062 2.031 1.062.625 0 1.219-.265.594-.281 1.219-.86z"/><text x="133" y="132.57" fill="#D9B8FF" font-family="Helvetica" font-size="17" textLength="167">digitalocean_project</text><rect width="227" height="39.789" x="159" y="406.16" fill="#3D176E" rx="2.5" ry="2.5" style="stroke:#000d19;stroke-width:.5"/><circle cx="174" cy="426.055" r="11" fill="#ADD1B2" style="stroke:#181818;stroke-width:1"/><path d="M176.969 431.695q-.578.297-1.219.438-.64.156-1.344.156-2.5 0-3.828-1.64-1.312-1.657-1.312-4.782t1.312-4.781q1.328-1.656 3.828-1.656.703 0 1.344.156.656.156 1.219.453v2.719q-.625-.578-1.219-.844-.594-.281-1.219-.281-1.344 0-2.031 1.078-.687 1.062-.687 3.156t.687 3.172q.688 1.062 2.031 1.062.625 0 1.219-.265.594-.281 1.219-.86z"/><text x="193" y="431.94" fill="#D9B8FF" font-family="Helvetica" font-size="17" textLength="185">digitalocean_snapshot</text><rect width="196" height="39.789" x="184.5" y="7" fill="#3D176E" rx="2.5" ry="2.5" style="stroke:#000d19;stroke-width:.5"/><circle cx="199.5" cy="26.895" r="11" fill="#ADD1B2" style="stroke:#181818;stroke-width:1"/><path d="M202.469 32.535q-.578.297-1.219.438-.64.156-1.344.156-2.5 0-3.828-1.64-1.312-1.657-1.312-4.782t1.312-4.781q1.328-1.656 3.828-1.656.703 0 1.344.156.656.156 1.219.453v2.719q-.625-.578-1.219-.844-.594-.281-1.219-.281-1.344 0-2.031 1.078-.687 1.062-.687 3.156t.687 3.172q.688 1.062 2.031 1.062.625 0 1.219-.265.594-.281 1.219-.86z"/><text x="218.5" y="32.78" fill="#D9B8FF" font-family="Helvetica" font-size="17" textLength="154">digitalocean_team</text><rect width="215" height="39.789" x="165" y="306.37" fill="#3D176E" rx="2.5" ry="2.5" style="stroke:#000d19;stroke-width:.5"/><circle cx="180" cy="326.264" r="11" fill="#ADD1B2" style="stroke:#181818;stroke-width:1"/><path d="M182.969 331.905q-.578.297-1.219.438-.64.156-1.344.156-2.5 0-3.828-1.64-1.312-1.657-1.312-4.782t1.312-4.781q1.328-1.656 3.828-1.656.703 0 1.344.156.656.156 1.219.453v2.719q-.625-.579-1.219-.844-.594-.281-1.219-.281-1.344 0-2.031 1.078-.687 1.062-.687 3.156t.687 3.172q.688 1.062 2.031 1.062.625 0 1.219-.265.594-.281 1.219-.86z"/><text x="199" y="332.15" fill="#D9B8FF" font-family="Helvetica" font-size="17" textLength="173">digitalocean_volume</text><path fill="none" d="M113.99 246.6c2.81 25.12 10.84 69.57 33.51 99.56 20.04 26.51 46.417 43.719 72.907 56.889" style="stroke:#1a83af;stroke-width:2"/><path fill="#1A83AF" d="m225.78 405.72-6.278-7.588 1.8 5.362-5.362 1.801z" style="stroke:#1a83af;stroke-width:2"/><path fill="none" d="M144.11 246.8c28.05 17.14 63.691 38.92 91.721 56.06" style="stroke:#1a83af;stroke-width:2"/><path fill="#1A83AF" d="m240.95 305.99-5.591-8.108 1.325 5.5-5.499 1.325z" style="stroke:#1a83af;stroke-width:2"/><path fill="none" d="m185.52 147.01-50.993 54.798" style="stroke:#1a83af;stroke-width:2"/><path fill="#1A83AF" d="m130.44 206.2 9.06-3.864-5.654.204-.203-5.654z" style="stroke:#1a83af;stroke-width:2"/><path fill="none" d="M211.84 146.97c6.74 15.87 16.29 39.02 23.66 59.61 12.44 34.75 23.103 70.266 29.923 93.846" style="stroke:#1a83af;stroke-width:2"/><path fill="#1A83AF" d="m267.09 306.19 1.342-9.757-2.731 4.954-4.954-2.731z" style="stroke:#1a83af;stroke-width:2"/><path fill="none" d="M184.13 42.22c-38.66 10.97-79.3 30.35-102.63 64.57-20.87 30.62-2.308 69.412 13.812 94.341" style="stroke:#1a83af;stroke-width:2"/><path fill="#1A83AF" d="m98.57 206.17-1.528-9.73-1.187 5.531-5.53-1.187z" style="stroke:#1a83af;stroke-width:2"/><path fill="none" d="M266.89 47.22c-13.85 17.14-30.2 37.393-44.04 54.523" style="stroke:#1a83af;stroke-width:2"/><path fill="#1A83AF" d="m219.08 106.41 8.767-4.487-5.625.598-.597-5.625z" style="stroke:#1a83af;stroke-width:2"/><path fill="none" d="M305.08 47.06c15.92 14.73 36.46 36.46 48.42 59.73 49.46 96.2 96.23 144.65 44 239.37-15.24 27.64-39.27 44.366-65.76 56.946" style="stroke:#1a83af;stroke-width:2"/><path fill="#1A83AF" d="m326.32 405.68 9.846-.248-5.33-1.897 1.898-5.33z" style="stroke:#1a83af;stroke-width:2"/><path fill="none" d="M296.59 47.17c10.27 15.31 23.32 37.71 28.91 59.62 18.7 73.38-18.538 155.726-39.048 193.866" style="stroke:#1a83af;stroke-width:2"/><path fill="#1A83AF" d="m283.61 305.94 7.786-6.032-5.418 1.628-1.628-5.417z" style="stroke:#1a83af;stroke-width:2"/><path fill="none" d="M272.5 346.59v53.19" style="stroke:#1a83af;stroke-width:2"/><path fill="#1A83AF" d="m272.5 405.78 4-9-4 4-4-4z" style="stroke:#1a83af;stroke-width:2"/></svg>
